!!!COM: Bach, Johann Sebastian
!!!OPR: Joh. Seb. Bachs vierstimmige Choralgesänge
!!!XEN: Four-part Chorales
!!!OTL: 177. Wenn mein Stündlein vorhanden ist
!!!SCT: BWV 430
!!!SCA: Thematisch-systematisches Verzeichnis der musikalischen Werke Johann Sebastian Bach: Bach-Werke-Verzeichnis (Schmieder)
!!!YOR: Bach Gesellschaft Edition xxxix
!!!ENC: Steven Rasmussen
!!!CDT: 1685/3//-1750/7/28/
!!!OCY: Deutschland
!!!YEC: Copyright (c) 1994, 2000 Center for Computer Assisted Research in the Humanities
!!!YEM: Rights to all derivative editions reserved
!!!YEN: United States of America
**kern	**silbe	**kern	**silbe	**kern	**silbe	**kern	**silbe
*I:[BASSO]	*I:[BASSO]	*I:[TENORE]	*I:[TENORE]	*I:[ALTO]	*I:[ALTO]	*I:[SOPRANO]	*I:[SOPRANO]
*clefF4	*	*clefGv2	*	*clefG2	*	*clefG2	*
*k[f#c#g#]	*	*k[f#c#g#]	*	*k[f#c#g#]	*	*k[f#c#g#]	*
*A:	*	*A:	*	*A:	*	*A:	*
*M4/4	*	*M4/4	*	*M4/4	*	*M4/4	*
8AAL	.	4E	.	8c#L	.	4a	Wenn
8BBJ	.	.	.	8dJ	.	.	.
=1	=1	=1	=1	=1	=1	=1	=1
4C#	.	4A	.	4e	.	4e	mein
4D#	.	8G#L	.	4B	.	4f#	StÃ¼nd-
.	.	8F#J	.	.	.	.	.
4E#	.	4c#	.	4B	.	4g#	-lein
4F#	.	4c#	.	4A	.	4a	vor-
=2	=2	=2	=2	=2	=2	=2	=2
4G#	.	4B	.	4e	.	4b	-han-
4A	.	8AL	.	4e	.	4cc#	-den
.	.	8GnJ	.	.	.	.	.
4D;	.	4F#;	.	4d;	.	4a;	ist
8AL	.	4A	.	4e	.	8cc#L	und
8BJ	.	.	.	.	.	8ddJ	.
=3	=3	=3	=3	=3	=3	=3	=3
8c#L	.	8G#L	.	4e	.	4ee	ich
8BJ	.	8AJ	.	.	.	.	.
8AL	.	4B	.	4e	.	4ee	soll
8G#J	.	.	.	.	.	.	.
4A	.	8AL	.	4e	.	8cc#L	fahr'n
.	.	8BJ	.	.	.	8ddJ	.
4A#	.	4c#	.	4f#	.	4ee	mein'
=4	=4	=4	=4	=4	=4	=4	=4
4B	.	8BL	.	8f#L	.	2dd	Stra-
.	.	8c#	.	8e#	.	.	.
4BB	.	8d	.	8f#	.	.	.
.	.	8eJ	.	8g#J	.	.	.
4F#;	.	4f#;	.	4a;	.	4cc#;	-sse,
[4A	so	4e	.	4a	.	4cc#	so
=5	=5	=5	=5	=5	=5	=5	=5
8A]	.	(8f#	g'leit'	4b	.	4dd	g'leit'
4G#	g'leit'	4e)	.	.	.	.	.
.	.	.	.	4a	.	4cc#	du
4F#	du	4d	du	.	.	.	.
.	.	.	.	4g#	.	4b	mich,
8E#	mich,	8c#	mich,	.	.	.	.
8F#L	.	8c#L	Herr	4f#	.	8aL	Herr
8DJ	.	8BJ	.	.	.	8bJ	.
=6	=6	=6	=6	=6	=6	=6	=6
8AAL	.	4A	.	4.f#	.	4cc#	Je-
8BBJ	.	.	.	.	.	.	.
4C#	.	4G#	.	.	.	4cc#	-su
.	.	.	.	8e#	.	.	.
4FF#;	.	4F#;	.	4c#;	.	4a;	Christ,
4F#	.	4A	.	4f#	.	8cc#L	mit
.	.	.	.	.	.	8ddJ	.
=7	=7	=7	=7	=7	=7	=7	=7
8G#L	.	8BL	.	8eL	.	4ee	HÃ¼lf'
8F#J	.	8AJ	.	8f#J	.	.	.
4E	.	8BL	.	4g#	.	4ee	mich
.	.	8eJ	.	.	.	.	.
4A	.	4.e	.	4.a	.	8cc#L	nicht
.	.	.	.	.	.	8ddJ	.
4C#	.	.	.	.	.	4ee	ver-
.	.	8e	.	8a	.	.	.
=8	=8	=8	=8	=8	=8	=8	=8
4BB	.	8f#L	.	8aL	.	2dd	-las-
.	.	8d	.	16g#L	.	.	.
.	.	.	.	16f#JJ	.	.	.
4E	.	8B	.	4g#	.	.	.
.	.	8eJ	.	.	.	.	.
4AA;	.	4e;	.	4a;	.	4cc#;	-se:
4A	.	4e	.	4a	.	4cc#	mein'
=9	=9	=9	=9	=9	=9	=9	=9
[2A	Seel'	8f#L	.	8aL	.	4dd	Seel'
.	.	8BJ	.	8g#J	.	.	.
.	.	8c#L	.	4a	.	4cc#	an
.	.	8dJ	.	.	.	.	.
8A]	.	4.e	.	4.e	.	4b	mei-
8G#	an	.	.	.	.	.	.
8c#	mei-	.	.	.	.	8aL	-nem
8B	-nem	8d	.	16f#LL	.	8bJ	.
.	.	.	.	16g#JJ	.	.	.
=10	=10	=10	=10	=10	=10	=10	=10
(8A	letz-	4e	.	4a	.	4cc#	letz-
4AA)	.	.	.	.	.	.	.
.	.	4e	.	4gn	.	4cc#	-ten
16BBLL	-ten	.	.	.	.	.	.
16C#JJ	.	.	.	.	.	.	.
4D;	End'	4d;	.	4f#;	.	4a;	End'
4GG#	be-	4B	.	4e	.	4b	be-
=11	=11	=11	=11	=11	=11	=11	=11
8AA	-fehl'	8AL	.	8eL	.	4cc#	-fehl'
8E	ich,	8G#J	.	8g#J	.	.	.
[4A	Herr,	8AL	.	8f#L	.	4cc#	ich,
.	.	8c#J	.	8eJ	.	.	.
8AL]	.	4B	.	4d#	.	4f#	Herr,
8G#J	.	.	.	.	.	.	.
8F#L	in	4B	.	4e	.	4g#	in
8EJ	.	.	.	.	.	.	.
=12	=12	=12	=12	=12	=12	=12	=12
8D#L	.	4B	.	(8f#	.	8aL	dei-
8EJ	.	.	.	4e)	.	8g#J	.
8AL	.	8c#L	.	.	.	4f#	-ne
8BJ	.	8F#J	.	8d#	.	.	.
4E;	.	4G#;	.	4e;	.	4e;	HÃ¤nd',
8EL	.	8G#L	.	4B	.	4e	du
8DnJ	.	16AL	.	.	.	.	.
.	.	16BJJ	.	.	.	.	.
=13	=13	=13	=13	=13	=13	=13	=13
8C#	wirst	4E	.	4e	.	4a	wirst
8BB	sie	.	.	.	.	.	.
8AA	wohl	4B	.	4e	.	4b	sie
8GG#	be-	.	.	.	.	.	.
8AAL	-wah-	4.A	wohl	8eL	wohl	4.cc#	wohl
16BBL	.	.	.	16dL	.	.	.
16C#JJ	.	.	.	16eJJ	.	.	.
[4D	.	.	.	[4f#	.	.	.
.	.	16G#LL	.	.	.	16bLL	.
.	.	16AJJ	.	.	.	16cc#JJ	.
=14	=14	=14	=14	=14	=14	=14	=14
8DL]	.	8B	.	8f#]	.	4dd	.
16C#L	.	8B	be-	8g#	be-	.	.
16BBJJ	.	.	.	.	.	.	.
8F#L	.	8c#L	-wah-	[4a	-wah-	4cc#	be-
8EJ	.	16dL	.	.	.	.	.
.	.	16eJJ	.	.	.	.	.
8DL	.	8f#L	.	8aL]	.	2b	-wah-
8BBJ	.	8d	.	16g#L	.	.	.
.	.	.	.	16f#JJ	.	.	.
4E	.	8B	.	4g#	.	.	.
.	.	8eJ	.	.	.	.	.
=15	=15	=15	=15	=15	=15	=15	=15
2.AA;	-ren.	2.c#;	-ren.	2.e;	-ren.	2.a;	-ren.
==|!	==|!	==|!	==|!	==|!	==|!	==|!	==|!
*-	*-	*-	*-	*-	*-	*-	*-
!!!RWG: Key is interpreted using the Humdrum key tool.
!!!END: 1994/08/08
!!!EMD: Converted from MuseData to Humdrum Dec 19, 2000, by Andreas Kornstaedt using muse2kern.
!!!EED: Craig Stuart Sapp
!!!EEV: 2024/03/31
!!!ONB: Some non-unicode characters
